X:14172
T:Reel,untitled . BF13.044
M:2/2
L:1/8
Q:200
S:J.Lishman()MS,c1825,Lakes,Browne Coll.
R:Reel
O:England
A:Lakes
N:
Z:vmp.Cherri Graebe.
K:A Major
AEcB AFFG| AEcA B2 Bc|AEcB AFFc|dfce BABc:|!
|:eeec fffa| eeec BABc|eeed fffa| faec BABc:|!
|:EAAc AEAc|ceea feea|EAAc AEAc| dfce BABc:|!
|:aefe aefe|aefe((3fga) ((3gab)| aefe aefe|faec BABc:|]
